X: 007
M: 6/8
L: 1/8
K: G
efg gfe | d>ed dBG | FGA cdB | A>BA A2 :|
|: d |\
d>ed faf | d>ed d2B | cBc afc | B>cB B2D |\

